Obsidian-Gray/places/64/folder-music.svg

<svg height="64" width="64" xmlns="http://www.w3.org/2000/svg" xmlns:xlink="http://www.w3.org/1999/xlink"><linearGradient id="a" gradientTransform="matrix(2.6658408 0 0 2.7170994 -142.7791 -63.198824)" gradientUnits="userSpaceOnUse" x1="97.538795" x2="97.538795" y1="16.962049" y2="44.260689"><stop offset="0" stop-color="#fff"/><stop offset=".0221225" stop-color="#fff" stop-opacity=".235294"/><stop offset=".97909725" stop-color="#fff" stop-opacity=".156863"/><stop offset="1" stop-color="#fff" stop-opacity=".392157"/></linearGradient><linearGradient id="b" gradientTransform="matrix(3.036796 0 0 2.6909701 -8.883113 -59.364614)" gradientUnits="userSpaceOnUse" x1="22.934725" x2="22.934725" y1="49.629246" y2="36.599415"><stop offset="0" stop-color="#0a0a0a" stop-opacity=".498"/><stop offset="1" stop-color="#0a0a0a" stop-opacity="0"/></linearGradient><linearGradient id="c" gradientTransform="matrix(1 0 0 1.0266674 147 -64.186594)" gradientUnits="userSpaceOnUse" x1="-91" x2="-91" y1="43.999817" y2="119.05979"><stop offset="0" stop-color="#57738b"/><stop offset="1" stop-color="#455157"/></linearGradient><linearGradient id="d" gradientTransform="matrix(.2134205 0 0 .06641689 -13.147881 75.518568)" gradientUnits="userSpaceOnUse" x1="302.85715" x2="302.85715" y1="366.64789" y2="609.50507"><stop offset="0" stop-opacity="0"/><stop offset=".5"/><stop offset="1" stop-opacity="0"/></linearGradient><radialGradient id="e" cx="605.71429" cy="486.64789" gradientTransform="matrix(.08277507 0 0 .06641689 65.628912 75.518568)" gradientUnits="userSpaceOnUse" r="117.14286" xlink:href="#f"/><linearGradient id="f"><stop offset="0"/><stop offset="1" stop-opacity="0"/></linearGradient><radialGradient id="g" cx="605.71429" cy="486.64789" gradientTransform="matrix(-.08277505 0 0 .06641689 62.347829 75.518568)" gradientUnits="userSpaceOnUse" r="117.14286" xlink:href="#f"/><linearGradient id="h" gradientTransform="matrix(2.6658408 0 0 2.6469079 -143.33283 -60.049514)" gradientUnits="userSpaceOnUse" x1="97.538795" x2="97.538795" y1="8.810323" y2="44.260689"><stop offset="0" stop-color="#fff"/><stop offset=".1088333" stop-color="#fff" stop-opacity=".235294"/><stop offset=".97909725" stop-color="#fff" stop-opacity=".156863"/><stop offset="1" stop-color="#fff" stop-opacity=".392157"/></linearGradient><linearGradient id="i" gradientTransform="matrix(2.1683519 0 0 2.2464645 141.9485 -62.590474)" gradientUnits="userSpaceOnUse" x1="-51.786404" x2="-51.786404" y1="53.514328" y2="3.633682"><stop offset="0" stop-opacity=".321739"/><stop offset="1" stop-opacity=".278261"/></linearGradient><g transform="matrix(.50000002 0 0 .50000002 0 28.999999)"><path d="m12.999997-36.968594c-1.108 0-2 .892-2 2v5.96875h-3.0000004c-1.108 0-2 .892-2 2v11c0 1.108.892 2 2 2h112.0000034c1.108 0 2-.892 2-2v-11c0-1.108-.892-2-2-2h-62.999999v-5.96875c0-1.108-.892-2-2-2z" fill="#cecece"/><path d="m13.662787-37.499684c-1.87818.0205-3.16279.9143-3.16279 2.67225v5.32743c-.9606004 0-1.4771004-.003-2.1044004 0-1.67856.008-2.87762.94491-2.87762 2.83298.0936 27.49765022-.018 28.9219402-.018 31.2565502 3.90581 0 117.0000034-9.8866399 117.0000034-14.1422999v-17.1420903c0-1.75796-1.15786-2.82564-3.03605-2.80514h-61.963949v-5.19887c0-1.75795-1.18743-2.80081-2.94827-2.80081h-40.888944z" fill="none" opacity=".8" stroke="url(#i)"/><path d="m13.499997-36.499844c-1.108 0-2 .892-2 2v6h-3.0000004c-1.108 0-2 .892-2 2v11c0 1.108.892 2 2 2h111.0000034c1.108 0 2-.892 2-2v-11c0-1.108-.892-2-2-2h-62.999999v-6c0-1.108-.892-2-2-2z" fill="none" stroke="url(#h)" stroke-linecap="round" stroke-linejoin="round"/><g transform="matrix(1.0027339 0 0 .9919518 -.163313 -51.066404)"><path d="m12.462574 99.870178h103.05159v16.129816h-103.05159z" fill="url(#d)" opacity=".3"/><path d="m115.51417 99.870734v16.128926c4.26271.0304 10.30516-3.61367 10.30516-8.0655s-4.75687-8.063426-10.30516-8.063426z" fill="url(#e)" opacity=".3"/><path d="m12.462574 99.870734v16.128926c-4.2627113.0304-10.3051588-3.61367-10.3051588-8.0655s4.7568636-8.063426 10.3051588-8.063426z" fill="url(#g)" opacity=".3"/></g><path d="m6.2499966-18.500054 115.4999934.001c1.66861 0 2.75001 1.18375 2.75001 2.65543l-2.71648 71.78068c.0386 1.86211-.55015 2.60044-2.48884 2.56139l-109.9330434-.0467c-1.66859 0-3.35116-1.09895-3.35116-2.57064l-2.51048-71.72469c0-1.47169 1.0814-2.65647 2.75-2.65647z" fill="url(#c)"/><path d="m5.7727166-19.000064 116.4545434.001c1.6824 0 2.77274 1.19912 2.77274 2.68993l-2.73893 72.7129c.0389 1.88629-.5547 2.63421-2.50941 2.59465l-110.8415834-.0474c-1.68238 0-3.37885-1.11323-3.37885-2.60404l-2.53123-72.65607c0-1.4908 1.09034-2.69097 2.77272-2.69097z" fill="url(#b)" opacity=".4"/><path d="m6.8037306-17.499854c-2.84882.29656-1.40933 3.76689-1.63989 5.72017.78584 22.54795 1.57466 45.09583 2.35864 67.64381 1.18868 2.48974 4.4300904 1.28205 6.6383204 1.57433 35.235146.0205 69.505799.0412 104.740999.0617 2.566-.16531 1.1572-3.81803 1.6535-5.65555.8547-22.56949 2.5429-67.57135 2.5429-67.57135 0-1.16209-.7799-1.7731-2.2073-1.7731h-114.0871694z" style="opacity:.5;fill:none;stroke-width:2;stroke-linecap:round;stroke-linejoin:round;stroke:url(#a)"/><path d="m6.2499966-18.500054 115.4999934.001c1.66861 0 2.75001 1.18375 2.75001 2.65543l-2.71648 71.78068c.0386 1.86211-.55015 2.60044-2.48884 2.56139l-109.9330434-.0467c-1.66859 0-3.35116-1.09895-3.35116-2.57064l-2.51048-71.72469c0-1.47169 1.0814-2.65647 2.75-2.65647z" fill="none" opacity=".3" stroke="#000" stroke-linecap="round" stroke-linejoin="round"/><path d="m13.375 0-7.375 1.90625c-.554.1484439-1 .738957-1 1.3125v9.09375c-.5617711-.294156-1.283256-.413102-2.03125-.21875-1.3497637.350711-2.19558448 1.484152-1.90625 2.53125.2893345 1.047098 1.6189863 1.631961 2.96875 1.28125 1.0768335-.279795 1.8191167-1.071448 1.9375-1.90625l.03125-8.59375 7-1.875v6.78125c-.561771-.294156-1.283256-.4131024-2.03125-.21875-1.3497637.350711-2.1955845 1.484152-1.90625 2.53125s1.618986 1.631961 2.96875 1.28125c1.076834-.279795 1.819117-1.071448 1.9375-1.90625l.03125-11.1875c0-.43015725-.265844-.75198835-.625-.8125z" fill="#28323c" transform="matrix(3.31762357031 0 0 3.19791667857 36.38510584873 -4.05293181959)"/></g></svg>

<?xml version="1.0" encoding="UTF-8" standalone="no"?>
<svg
   xmlns:dc="http://purl.org/dc/elements/1.1/"
   xmlns:cc="http://creativecommons.org/ns#"
   xmlns:rdf="http://www.w3.org/1999/02/22-rdf-syntax-ns#"
   xmlns:svg="http://www.w3.org/2000/svg"
   xmlns="http://www.w3.org/2000/svg"
   xmlns:xlink="http://www.w3.org/1999/xlink"
   version="1.1"
   id="svg26392"
   height="64"
   width="64">
  <defs
     id="defs26394">
    <linearGradient
       y2="44.260689"
       x2="97.538795"
       y1="16.962049"
       x1="97.538795"
       gradientTransform="matrix(2.6658408,0,0,2.7170994,-142.7791,-63.198824)"
       gradientUnits="userSpaceOnUse"
       id="linearGradient5891"
       xlink:href="#linearGradient8272" />
    <linearGradient
       id="linearGradient8272">
      <stop
         id="stop8274"
         style="stop-color:#ffffff;stop-opacity:1"
         offset="0" />
      <stop
         id="stop8276"
         style="stop-color:#ffffff;stop-opacity:0.23529412"
         offset="0.0221225" />
      <stop
         id="stop8278"
         style="stop-color:#ffffff;stop-opacity:0.15686275"
         offset="0.97909725" />
      <stop
         id="stop8280"
         style="stop-color:#ffffff;stop-opacity:0.39215687"
         offset="1" />
    </linearGradient>
    <linearGradient
       y2="36.599415"
       x2="22.934725"
       y1="49.629246"
       x1="22.934725"
       gradientTransform="matrix(3.036796,0,0,2.6909701,-8.8831134,-59.364614)"
       gradientUnits="userSpaceOnUse"
       id="linearGradient5887"
       xlink:href="#linearGradient6129-963-697-142-998-580-273" />
    <linearGradient
       id="linearGradient6129-963-697-142-998-580-273">
      <stop
         offset="0"
         style="stop-color:#0a0a0a;stop-opacity:0.498"
         id="stop2661" />
      <stop
         offset="1"
         style="stop-color:#0a0a0a;stop-opacity:0"
         id="stop2663" />
    </linearGradient>
    <linearGradient
       y2="119.05979"
       x2="-91"
       y1="43.999817"
       x1="-91"
       gradientTransform="matrix(1,0,0,1.0266674,147,-64.186594)"
       gradientUnits="userSpaceOnUse"
       id="linearGradient5883"
       xlink:href="#linearGradient4632-0-6-4" />
    <linearGradient
       id="linearGradient4632-0-6-4">
      <stop
         id="stop4634-4-4-7"
         offset="0"
         style="stop-color:#57738b;stop-opacity:1;" />
      <stop
         id="stop4636-3-1-5"
         offset="1"
         style="stop-color:#455157;stop-opacity:1;" />
    </linearGradient>
    <linearGradient
       y2="609.50507"
       x2="302.85715"
       y1="366.64789"
       x1="302.85715"
       gradientTransform="matrix(0.2134205,0,0,0.06641689,-13.147881,75.518568)"
       gradientUnits="userSpaceOnUse"
       id="linearGradient5875"
       xlink:href="#linearGradient5048-585" />
    <linearGradient
       id="linearGradient5048-585">
      <stop
         offset="0"
         style="stop-color:#000000;stop-opacity:0"
         id="stop2667" />
      <stop
         offset="0.5"
         style="stop-color:#000000;stop-opacity:1"
         id="stop2669" />
      <stop
         offset="1"
         style="stop-color:#000000;stop-opacity:0"
         id="stop2671" />
    </linearGradient>
    <radialGradient
       r="117.14286"
       fy="486.64789"
       fx="605.71429"
       cy="486.64789"
       cx="605.71429"
       gradientTransform="matrix(0.08277507,0,0,0.06641689,65.628912,75.518568)"
       gradientUnits="userSpaceOnUse"
       id="radialGradient5877"
       xlink:href="#linearGradient5060-179" />
    <linearGradient
       id="linearGradient5060-179">
      <stop
         offset="0"
         style="stop-color:#000000;stop-opacity:1"
         id="stop2675" />
      <stop
         offset="1"
         style="stop-color:#000000;stop-opacity:0"
         id="stop2677" />
    </linearGradient>
    <radialGradient
       r="117.14286"
       fy="486.64789"
       fx="605.71429"
       cy="486.64789"
       cx="605.71429"
       gradientTransform="matrix(-0.08277505,0,0,0.06641689,62.347829,75.518568)"
       gradientUnits="userSpaceOnUse"
       id="radialGradient5879"
       xlink:href="#linearGradient5060-820" />
    <linearGradient
       id="linearGradient5060-820">
      <stop
         offset="0"
         style="stop-color:#000000;stop-opacity:1"
         id="stop2681" />
      <stop
         offset="1"
         style="stop-color:#000000;stop-opacity:0"
         id="stop2683" />
    </linearGradient>
    <linearGradient
       y2="44.260689"
       x2="97.538795"
       y1="8.8103228"
       x1="97.538795"
       gradientTransform="matrix(2.6658408,0,0,2.6469079,-143.33283,-60.049514)"
       gradientUnits="userSpaceOnUse"
       id="linearGradient5873"
       xlink:href="#linearGradient9235" />
    <linearGradient
       id="linearGradient9235">
      <stop
         offset="0"
         style="stop-color:#ffffff;stop-opacity:1"
         id="stop9237" />
      <stop
         offset="0.1088333"
         style="stop-color:#ffffff;stop-opacity:0.23529412"
         id="stop9239" />
      <stop
         offset="0.97909725"
         style="stop-color:#ffffff;stop-opacity:0.15686275"
         id="stop9241" />
      <stop
         offset="1"
         style="stop-color:#ffffff;stop-opacity:0.39215687"
         id="stop9243" />
    </linearGradient>
    <linearGradient
       y2="3.6336823"
       x2="-51.786404"
       y1="53.514328"
       x1="-51.786404"
       gradientTransform="matrix(2.1683519,0,0,2.2464645,141.9485,-62.590474)"
       gradientUnits="userSpaceOnUse"
       id="linearGradient5869"
       xlink:href="#linearGradient3104-8-8-97-4-6-11-5-5-1-0" />
    <linearGradient
       id="linearGradient3104-8-8-97-4-6-11-5-5-1-0">
      <stop
         id="stop3106-5-4-3-5-0-2-1-0-1-2"
         style="stop-color:#000000;stop-opacity:0.32173914"
         offset="0" />
      <stop
         id="stop3108-4-3-7-8-2-0-7-9-4-9"
         style="stop-color:#000000;stop-opacity:0.27826086"
         offset="1" />
    </linearGradient>
    <linearGradient
       id="linearGradient6404-7-5">
      <stop
         offset="0"
         style="stop-color:#f9f9f9;stop-opacity:1"
         id="stop6406-1-8" />
      <stop
         offset="1"
         style="stop-color:#c9c9c9;stop-opacity:1"
         id="stop6408-9-6" />
    </linearGradient>
  </defs>
  <metadata
     id="metadata26397">
    <rdf:RDF>
      <cc:Work
         rdf:about="">
        <dc:format>image/svg+xml</dc:format>
        <dc:type
           rdf:resource="http://purl.org/dc/dcmitype/StillImage" />
        <dc:title></dc:title>
      </cc:Work>
    </rdf:RDF>
  </metadata>
  <g
     id="layer1">
    <g
       transform="matrix(0.50000002,0,0,0.50000002,-3.870764e-8,28.999999)"
       id="g875">
      <path
         style="color:#000000;display:inline;overflow:visible;visibility:visible;fill:#cecece;fill-opacity:1;fill-rule:nonzero;stroke:none;stroke-width:1.00000012;marker:none;enable-background:accumulate"
         d="m 12.999997,-36.968594 c -1.108,0 -2,0.892 -2,2 v 5.96875 H 7.9999966 c -1.108,0 -2,0.892 -2,2 v 11 c 0,1.108 0.892,2 2,2 H 120 c 1.108,0 2,-0.892 2,-2 v -11 c 0,-1.108 -0.892,-2 -2,-2 H 57.000001 v -5.96875 c 0,-1.108 -0.892,-2 -2,-2 z"
         id="rect8678-4" />
      <path
         d="m 13.662787,-37.499684 c -1.87818,0.0205 -3.16279,0.9143 -3.16279,2.67225 v 5.32743 c -0.9606004,0 -1.4771004,-0.003 -2.1044004,0 -1.67856,0.008 -2.87762,0.94491 -2.87762,2.83298 0.0936,27.49765022 -0.018,28.9219402 -0.018,31.2565502 3.90581,0 117.0000034,-9.8866399 117.0000034,-14.1422999 V -26.694864 c 0,-1.75796 -1.15786,-2.82564 -3.03605,-2.80514 H 57.499981 v -5.19887 c 0,-1.75795 -1.18743,-2.80081 -2.94827,-2.80081 H 13.662767 Z"
         id="path3468"
         style="color:#000000;display:inline;overflow:visible;visibility:visible;opacity:0.8;fill:none;stroke:url(#linearGradient5869);stroke-width:1;stroke-linecap:butt;stroke-linejoin:miter;stroke-miterlimit:4;stroke-dasharray:none;stroke-dashoffset:0;stroke-opacity:1;marker:none;enable-background:accumulate" />
      <path
         style="color:#000000;display:inline;overflow:visible;visibility:visible;fill:none;stroke:url(#linearGradient5873);stroke-width:0.99999982;stroke-linecap:round;stroke-linejoin:round;stroke-miterlimit:4;stroke-dasharray:none;stroke-dashoffset:0;stroke-opacity:1;marker:none;enable-background:accumulate"
         d="m 13.499997,-36.499844 c -1.108,0 -2,0.892 -2,2 v 6 H 8.4999966 c -1.108,0 -2,0.892 -2,2 v 11 c 0,1.108 0.892,2 2,2 H 119.5 c 1.108,0 2,-0.892 2,-2 v -11 c 0,-1.108 -0.892,-2 -2,-2 H 56.500001 v -6 c 0,-1.108 -0.892,-2 -2,-2 z"
         id="rect8678" />
      <g
         transform="matrix(1.0027339,0,0,0.9919518,-0.16331336,-51.066404)"
         id="g2479">
        <rect
           width="103.05159"
           height="16.129816"
           x="12.462574"
           y="99.870178"
           id="rect4173"
           style="display:inline;overflow:visible;visibility:visible;opacity:0.3;fill:url(#linearGradient5875);fill-opacity:1;fill-rule:nonzero;stroke:none;stroke-width:1;marker:none" />
        <path
           d="m 115.51417,99.870734 c 0,0 0,16.128926 0,16.128926 4.26271,0.0304 10.30516,-3.61367 10.30516,-8.0655 0,-4.45183 -4.75687,-8.063426 -10.30516,-8.063426 z"
           id="path5058"
           style="display:inline;overflow:visible;visibility:visible;opacity:0.3;fill:url(#radialGradient5877);fill-opacity:1;fill-rule:nonzero;stroke:none;stroke-width:1;marker:none" />
        <path
           d="m 12.462574,99.870734 c 0,0 0,16.128926 0,16.128926 -4.2627113,0.0304 -10.3051588,-3.61367 -10.3051588,-8.0655 0,-4.45183 4.7568636,-8.063426 10.3051588,-8.063426 z"
           id="path5018"
           style="display:inline;overflow:visible;visibility:visible;opacity:0.3;fill:url(#radialGradient5879);fill-opacity:1;fill-rule:nonzero;stroke:none;stroke-width:1;marker:none" />
      </g>
      <path
         d="m 6.2499966,-18.500054 115.4999934,10e-4 c 1.66861,0 2.75001,1.18375 2.75001,2.65543 l -2.71648,71.78068 c 0.0386,1.86211 -0.55015,2.60044 -2.48884,2.56139 L 9.3616366,58.451746 c -1.66859,0 -3.35116,-1.09895 -3.35116,-2.57064 l -2.51048,-71.72469 c 0,-1.47169 1.0814,-2.65647 2.75,-2.65647 z"
         id="path3369"
         style="display:inline;overflow:visible;visibility:visible;fill:url(#linearGradient5883);fill-opacity:1;fill-rule:nonzero;stroke:none;stroke-width:0.99999982;marker:none;enable-background:accumulate" />
      <path
         d="m 5.7727166,-19.000064 116.4545434,10e-4 c 1.6824,0 2.77274,1.19912 2.77274,2.68993 l -2.73893,72.7129 c 0.0389,1.88629 -0.5547,2.63421 -2.50941,2.59465 L 8.9100766,58.951016 c -1.68238,0 -3.37885,-1.11323 -3.37885,-2.60404 l -2.53123,-72.65607 c 0,-1.4908 1.09034,-2.69097 2.77272,-2.69097 z"
         id="path6127"
         style="opacity:0.4;fill:url(#linearGradient5887);fill-opacity:1;stroke:none" />
      <path
         style="display:inline;overflow:visible;visibility:visible;opacity:0.5;fill:none;stroke:url(#linearGradient5891);stroke-width:1.99999988;stroke-linecap:round;stroke-linejoin:round;stroke-miterlimit:4;stroke-dasharray:none;stroke-dashoffset:0;stroke-opacity:1;marker:none;enable-background:accumulate"
         d="m 6.8037306,-17.499854 c -2.84882,0.29656 -1.40933,3.76689 -1.63989,5.72017 0.78584,22.54795 1.57466,45.09583 2.35864,67.64381 1.18868,2.48974 4.4300904,1.28205 6.6383204,1.57433 35.235146,0.0205 69.505799,0.0412 104.740999,0.0617 2.566,-0.16531 1.1572,-3.81803 1.6535,-5.65555 0.8547,-22.56949 2.5429,-67.57135 2.5429,-67.57135 0,-1.16209 -0.7799,-1.7731 -2.2073,-1.7731 H 6.8037306 Z"
         id="path8263" />
      <path
         d="m 6.2499966,-18.500054 115.4999934,10e-4 c 1.66861,0 2.75001,1.18375 2.75001,2.65543 l -2.71648,71.78068 c 0.0386,1.86211 -0.55015,2.60044 -2.48884,2.56139 L 9.3616366,58.451746 c -1.66859,0 -3.35116,-1.09895 -3.35116,-2.57064 l -2.51048,-71.72469 c 0,-1.47169 1.0814,-2.65647 2.75,-2.65647 z"
         id="path3369-7"
         style="display:inline;overflow:visible;visibility:visible;opacity:0.3;fill:none;stroke:#000000;stroke-width:0.99999982;stroke-linecap:round;stroke-linejoin:round;stroke-miterlimit:4;stroke-dasharray:none;stroke-dashoffset:0;stroke-opacity:1;marker:none;enable-background:accumulate" />
      <g
         id="g4856"
         transform="matrix(1.5669795,0,0,1.5669795,36.910138,-75.685419)">
        <g
           style="color:#bebebe;display:inline;overflow:visible;visibility:visible;fill:#28323c;fill-opacity:1;fill-rule:nonzero;stroke:none;stroke-width:1;marker:none;enable-background:accumulate"
           id="layer1-3"
           transform="matrix(2.1172093,0,0,2.0408159,-0.33506034,45.713736)">
          <path
             style="color:#bebebe;display:inline;overflow:visible;visibility:visible;fill:#28323c;fill-opacity:1;fill-rule:nonzero;stroke:none;stroke-width:1;marker:none;enable-background:accumulate"
             id="rect2996"
             d="M 13.375,0 6,1.90625 C 5.446,2.0546939 5,2.645207 5,3.21875 V 12.3125 C 4.4382289,12.018344 3.716744,11.899398 2.96875,12.09375 1.6189863,12.444461 0.77316552,13.577902 1.0625,14.625 1.3518345,15.672098 2.6814863,16.256961 4.03125,15.90625 5.1080835,15.626455 5.8503667,14.834802 5.96875,14 L 6,5.40625 13,3.53125 V 10.3125 C 12.438229,10.018344 11.716744,9.8993976 10.96875,10.09375 9.6189863,10.444461 8.7731655,11.577902 9.0625,12.625 c 0.2893345,1.047098 1.618986,1.631961 2.96875,1.28125 C 13.108084,13.626455 13.850367,12.834802 13.96875,12 L 14,0.8125 C 14,0.38234275 13.734156,0.06051165 13.375,0 Z" />
        </g>
      </g>
    </g>
  </g>
</svg>
